X:49.3
T:Suite Plinn: Bal
R:Breton
S:from Anna Pack, Dec 2022
L:1/8
M:6/8
G:sax
P:soprano: 4x (A = FW+AP; B = CW+AP)
K:Fmaj
DDG G3|FGA G3|[M:9/8]FGA B2G G2F|\
M:6/8
(A3A3)|FED G3|FGA G3|FGA B2G|G2FA3|
M:4/4
|:G2GG FE D2|A2Bc cB AF|G2GG FE D2|EF FD DC D2:|

